X:79
T:The Merry Merry Milk Maids
T:The Merry Milkmaids In Green
M:6/4
L:1/4
K:CMix
c | c>dc G2 g | e3-e2 c | cdc G2 _B | A3-A2 F | F3/2 G/A/B/ c2 A | d3/2 c/B/A/ G2 g | e>fg d2 c | c3-c2 ||
c | e>fg g>ag | e>fg g>fe | f2 g a2 b | c'3-c'2 g | c'2 a e>fg | a2 g d>ef |
g2 e c>de | d2 B G> AB | c3 A>Bc | d3 B>AG | c>de d2 c | c3-c2 ||
%
%
